<?xml version="1.0" encoding="UTF-8"?>
<map version="1.10" tiledversion="1.12.2" orientation="orthogonal" renderorder="left-down" width="32" height="20" tilewidth="16" tileheight="16" infinite="0" nextlayerid="11" nextobjectid="212">
 <tileset firstgid="1" source="tilesets/Terrain.tsx"/>
 <tileset firstgid="243" source="tilesets/boxs.tsx"/>
 <tileset firstgid="249" source="tilesets/checkpoints.tsx"/>
 <tileset firstgid="252" source="tilesets/fruits.tsx"/>
 <tileset firstgid="268" source="tilesets/characters.tsx"/>
 <tileset firstgid="272" source="tilesets/background.tsx"/>
 <tileset firstgid="279" source="tilesets/traps.tsx"/>
 <layer id="7" name="background_tile" width="32" height="20">
  <data encoding="csv">
0,0,0,0,0,0,0,0,0,0,0,0,0,0,0,0,0,0,0,0,0,0,0,0,0,0,0,0,0,0,0,0,
0,0,0,0,0,0,0,0,0,0,0,0,0,0,0,0,0,0,0,0,0,0,0,0,0,0,0,0,0,0,0,0,
0,0,0,0,0,0,0,0,0,0,0,0,0,0,0,0,0,0,0,0,0,0,0,0,0,0,0,0,0,0,0,0,
0,0,0,0,0,0,0,0,0,0,0,0,0,0,0,0,0,0,0,0,0,0,0,0,0,0,0,0,0,0,0,0,
0,0,0,0,0,0,0,0,0,0,0,0,0,0,0,0,0,0,0,0,0,0,0,0,0,0,0,0,0,0,0,0,
0,0,0,0,0,0,0,0,0,0,0,0,0,0,0,0,0,0,0,0,0,0,0,0,0,0,0,0,0,0,0,0,
0,0,0,0,0,0,0,0,0,0,0,0,0,0,0,0,0,0,0,0,0,0,0,0,0,0,0,0,0,0,0,0,
0,0,0,0,0,0,0,0,0,0,0,0,0,0,0,0,0,0,0,0,0,0,0,0,0,0,0,0,0,0,0,0,
0,0,0,0,0,0,0,0,0,0,0,0,0,0,0,0,0,0,0,0,0,0,0,0,0,0,0,0,0,0,0,0,
0,0,0,0,0,0,0,0,0,0,0,0,0,0,0,0,0,0,0,0,0,0,0,0,0,0,0,0,0,0,0,0,
0,0,0,0,0,0,0,0,0,0,0,0,0,0,0,0,0,0,0,0,0,0,0,0,0,0,0,0,0,0,0,0,
0,0,0,0,0,0,0,0,0,0,0,0,0,0,0,0,0,0,0,0,0,0,0,0,0,0,0,0,0,0,0,0,
0,0,0,0,0,0,0,0,0,0,0,0,0,0,0,0,0,0,0,0,0,0,0,0,0,0,0,0,0,0,0,0,
0,0,0,0,0,0,0,0,0,0,0,0,0,0,0,0,0,0,0,0,0,0,0,0,0,0,0,0,0,0,0,0,
0,0,0,0,0,0,0,0,0,0,0,0,0,0,0,0,0,0,0,0,0,0,0,0,0,0,0,0,0,0,0,0,
0,0,0,0,0,0,0,0,0,0,0,0,0,0,0,0,0,0,0,0,0,0,0,0,0,0,0,0,0,0,0,0,
0,0,0,0,0,0,0,0,0,0,0,0,0,0,0,0,0,0,0,0,0,0,0,0,0,0,0,0,0,0,0,0,
0,0,0,0,0,0,0,0,0,0,0,0,0,0,0,0,0,0,0,0,0,0,0,0,0,0,0,0,0,0,0,0,
0,0,0,0,0,0,0,0,0,0,0,0,0,0,0,0,0,0,0,0,0,0,0,0,0,0,0,0,0,0,0,0,
0,0,0,0,0,0,0,0,0,0,0,0,0,0,0,0,0,0,0,0,0,0,0,0,0,0,0,0,0,0,0,0
</data>
 </layer>
 <layer id="1" name="normal_tile" width="32" height="20">
  <data encoding="csv">
24,24,24,24,24,24,24,24,24,24,24,24,24,24,24,24,24,24,24,24,24,24,24,24,24,24,24,24,24,24,24,24,
24,4,46,46,46,46,46,46,46,46,46,46,46,46,46,46,46,46,46,46,46,46,46,46,46,46,46,46,46,46,46,5,
24,25,0,0,0,0,0,0,0,0,0,0,0,0,0,0,0,0,0,0,0,0,0,0,0,0,0,0,0,0,0,23,
24,25,0,0,0,0,0,0,0,0,0,0,0,0,0,0,0,0,0,0,0,0,0,0,0,0,0,0,0,0,0,23,
4,47,0,0,0,0,0,0,0,0,0,0,0,0,0,0,0,0,0,0,0,0,0,0,0,0,0,0,0,0,0,23,
25,13,14,15,0,0,0,0,0,0,0,0,0,0,0,0,0,0,0,0,0,0,0,0,0,0,0,0,0,0,0,23,
26,3,16,0,0,0,0,0,0,0,0,0,0,0,0,0,0,0,0,0,0,0,0,0,0,0,0,0,0,0,0,23,
24,25,38,0,0,0,0,0,0,0,0,0,0,0,0,0,0,0,0,0,0,0,0,0,0,0,0,0,0,0,0,23,
4,47,60,0,0,0,0,0,0,0,0,0,0,0,0,0,0,0,0,0,0,0,0,0,0,0,0,0,0,0,0,23,
25,8,9,0,0,0,0,0,0,0,0,50,0,0,0,0,0,0,0,0,0,0,0,0,0,0,0,0,0,0,0,23,
25,30,31,0,0,0,0,0,0,0,0,0,0,0,0,0,0,0,0,0,0,0,0,0,0,0,0,0,0,0,0,23,
25,30,31,0,0,0,0,0,0,0,0,0,0,0,0,0,0,0,0,0,0,0,0,0,0,0,0,0,0,0,0,23,
25,30,31,0,0,0,0,0,0,0,0,0,0,0,0,0,0,0,0,0,0,0,0,0,0,0,0,0,0,0,0,23,
25,30,31,0,0,0,0,0,0,0,0,0,0,0,0,0,0,0,0,0,0,0,0,0,0,0,7,8,8,8,8,23,
25,30,31,0,0,0,0,0,0,0,0,0,0,0,0,0,0,0,0,0,0,0,0,0,0,0,29,30,1,2,2,27,
25,30,31,0,0,0,0,0,0,0,0,0,0,0,0,0,0,0,0,0,0,0,0,0,0,0,29,30,23,24,24,24,
25,30,31,0,0,0,0,0,0,0,0,0,0,0,0,0,0,0,0,0,0,0,0,0,0,0,29,30,23,24,24,24,
25,30,31,0,0,0,0,0,6,0,0,0,0,0,0,0,0,0,0,0,0,0,0,0,0,0,29,30,23,24,24,24,
25,30,31,0,0,0,0,0,0,0,0,0,0,0,0,0,0,0,0,0,0,0,0,0,0,0,29,30,23,24,24,24,
25,8,8,8,8,8,8,8,8,8,8,8,8,8,8,8,8,8,8,8,8,8,8,8,8,8,8,8,23,24,24,24
</data>
 </layer>
 <objectgroup id="3" name="collision_normal_tile">
  <object id="199" x="48" y="304" width="384" height="16"/>
  <object id="202" x="16" y="16" width="496" height="16"/>
  <object id="204" x="16" y="32" width="16" height="128"/>
  <object id="205" x="32" y="80" width="16" height="240"/>
  <object id="206" x="48" y="80" width="16" height="16"/>
  <object id="208" x="496" y="32" width="16" height="176"/>
  <object id="209" x="416" y="208" width="96" height="16"/>
  <object id="210" x="416" y="224" width="16" height="80"/>
 </objectgroup>
 <objectgroup id="4" name="decoration_object_layer"/>
 <objectgroup id="5" name="decoration_object_layer_foreground"/>
 <objectgroup id="6" name="object_layer">
  <object id="69" name="start" type="start" gid="251" x="55" y="304" width="64" height="64"/>
  <object id="155" name="frog" type="frog" gid="268" x="84" y="296" width="32" height="32"/>
  <object id="192" name="end" type="end" gid="249" x="324" y="304" width="64" height="64"/>
  <object id="194" name="apple" type="apple" gid="262" x="116" y="308" width="32" height="32"/>
  <object id="195" name="apple" type="apple" gid="262" x="144" y="308" width="32" height="32"/>
  <object id="196" name="apple" type="apple" gid="262" x="208" y="308" width="32" height="32"/>
  <object id="197" name="apple" type="apple" gid="262" x="236" y="308" width="32" height="32"/>
  <object id="198" name="apple" type="apple" gid="262" x="264" y="308" width="32" height="32"/>
  <object id="207" name="blue" type="blue" gid="272" x="-64" y="0" width="64" height="64"/>
 </objectgroup>
 <objectgroup id="8" name="traps_layer"/>
 <objectgroup id="10" name="buttons"/>
 <objectgroup id="9" name="paths_layer"/>
</map>
