<?xml version="1.0" encoding="UTF-8"?>
<map version="1.10" tiledversion="1.12.2" orientation="orthogonal" renderorder="left-down" width="52" height="20" tilewidth="16" tileheight="16" infinite="0" nextlayerid="11" nextobjectid="247">
 <tileset firstgid="1" source="tilesets/Terrain.tsx"/>
 <tileset firstgid="243" source="tilesets/boxs.tsx"/>
 <tileset firstgid="249" source="tilesets/checkpoints.tsx"/>
 <tileset firstgid="252" source="tilesets/fruits.tsx"/>
 <tileset firstgid="268" source="tilesets/characters.tsx"/>
 <tileset firstgid="272" source="tilesets/background.tsx"/>
 <tileset firstgid="279" source="tilesets/traps.tsx"/>
 <layer id="7" name="background_tile" width="52" height="20">
  <data encoding="csv">
4,46,46,46,46,46,46,46,46,46,46,46,46,46,46,46,46,46,46,46,46,46,46,46,46,46,46,46,46,46,46,46,46,46,46,46,46,46,46,46,46,46,46,46,46,46,46,46,46,46,5,24,
25,30,30,30,30,30,30,30,30,30,30,30,30,30,31,52,52,52,52,52,52,52,52,52,52,52,52,52,52,52,11,30,30,30,30,30,31,0,0,0,0,0,0,0,0,0,0,0,0,0,23,24,
25,30,30,30,30,30,30,30,30,30,30,30,30,30,31,0,0,0,0,0,0,0,0,0,0,0,0,0,0,0,29,30,30,30,30,30,31,0,0,0,0,0,0,0,0,0,0,0,0,0,23,24,
25,30,30,30,30,30,30,30,30,30,30,30,30,30,31,0,0,0,0,0,0,0,0,0,0,0,0,0,0,0,29,30,30,30,30,30,31,0,0,0,0,0,0,0,0,0,0,0,0,0,23,24,
25,30,30,30,30,30,30,30,30,30,30,30,30,30,31,0,0,0,7,8,8,8,8,8,9,0,0,0,0,0,29,30,30,30,30,30,31,0,0,0,0,0,0,0,0,0,0,7,8,8,23,24,
25,30,30,30,30,30,30,30,30,30,30,30,30,30,31,0,0,0,29,30,30,30,30,30,31,0,0,0,0,0,29,30,30,30,30,30,31,0,0,0,0,0,0,0,0,0,0,51,52,52,23,24,
25,30,30,30,30,30,30,30,30,30,30,30,30,30,31,0,0,0,29,30,30,30,30,30,31,0,0,0,0,0,29,30,30,30,30,30,31,0,0,0,0,0,0,0,0,0,0,0,0,0,23,24,
25,30,30,30,30,30,30,30,30,30,30,30,30,30,31,0,0,0,29,30,30,30,30,30,31,0,0,0,0,0,29,30,30,30,30,30,31,0,0,0,0,0,0,0,0,0,0,0,0,0,23,24,
25,30,30,30,30,30,30,30,30,30,30,30,30,30,31,0,0,0,29,30,30,36,37,16,31,0,0,0,0,0,29,30,30,30,30,30,31,0,0,0,0,0,0,0,0,0,0,0,0,0,23,24,
25,30,30,30,30,30,30,30,30,30,30,30,30,30,31,0,0,0,29,30,30,58,59,60,31,0,0,0,0,0,29,30,30,30,30,30,31,0,0,0,0,0,0,0,0,0,0,0,0,0,23,24,
25,30,30,30,30,30,30,30,30,30,30,30,30,30,31,0,0,0,29,32,8,8,8,33,31,0,0,0,0,0,29,30,30,30,30,32,8,8,8,8,9,0,0,0,0,0,0,0,0,0,23,24,
25,30,30,30,30,30,30,30,30,30,30,30,30,30,31,0,0,0,29,30,30,30,30,30,31,0,0,0,0,0,29,30,30,30,30,30,30,30,30,30,31,0,0,0,0,0,0,0,0,0,23,24,
25,52,52,52,52,52,52,52,52,52,52,52,52,52,53,0,0,0,29,30,30,30,30,30,31,0,0,0,0,0,29,30,30,30,30,30,30,30,30,30,31,0,0,0,0,0,0,0,0,0,23,24,
25,0,0,0,0,0,0,0,0,0,0,0,0,0,0,0,0,0,29,30,30,30,30,30,31,0,0,0,0,0,51,52,52,52,52,52,52,52,52,52,53,0,0,0,0,0,0,0,0,0,23,24,
25,0,0,0,0,0,0,0,0,0,0,0,0,0,0,0,0,0,29,30,30,30,36,37,31,0,0,0,0,0,0,0,0,0,0,0,0,0,0,0,0,0,0,0,0,0,0,0,0,0,23,24,
25,0,0,0,0,0,0,0,0,0,0,0,0,0,0,0,0,0,29,30,30,30,58,59,31,0,0,0,0,0,0,0,0,0,0,0,0,0,0,0,0,0,0,0,0,0,0,0,0,0,23,24,
25,0,0,0,0,0,0,0,0,0,0,0,0,0,0,0,0,0,29,30,30,30,35,35,31,0,0,0,0,0,0,0,0,0,0,0,0,0,0,0,0,0,0,0,0,0,0,0,0,0,45,5,
25,8,8,8,8,8,8,8,8,8,8,8,8,8,8,8,8,8,8,8,8,8,8,8,8,8,8,8,8,8,8,8,8,8,8,8,8,8,8,8,8,8,8,8,8,8,8,8,8,8,8,23,
25,30,30,30,30,30,30,30,30,30,30,30,30,30,30,30,30,30,30,30,30,30,30,30,30,30,30,30,30,30,30,30,30,30,30,30,30,30,30,30,30,30,30,30,30,30,30,30,30,30,30,23,
26,2,2,2,2,2,2,2,2,2,2,2,2,2,2,2,2,2,2,2,2,2,2,2,2,2,2,2,2,2,2,2,2,2,2,2,2,2,2,2,2,2,2,2,2,2,2,2,2,2,2,27
</data>
 </layer>
 <layer id="1" name="normal_tile" width="52" height="20" visible="0">
  <data encoding="csv">
0,0,0,0,0,0,0,0,0,0,0,0,0,0,0,0,0,0,0,0,0,0,0,0,0,0,0,0,0,0,0,5,0,0,0,0,0,0,0,0,0,0,0,0,0,0,0,0,0,0,0,0,
0,0,0,0,0,0,0,0,0,0,0,0,0,0,0,0,0,0,0,0,0,0,0,0,0,0,0,0,0,0,0,0,0,0,0,0,0,0,0,0,0,0,0,0,0,0,0,0,0,0,0,0,
0,0,0,0,0,0,0,0,0,0,0,0,0,0,0,0,0,0,0,0,0,0,0,0,0,0,0,0,0,0,0,0,0,0,0,0,0,0,0,0,0,0,0,0,0,0,0,0,0,0,0,0,
0,0,0,0,0,0,0,0,0,0,0,0,0,0,0,0,0,0,0,0,0,0,0,0,0,0,0,0,0,0,0,0,0,0,0,0,0,0,0,0,0,0,0,0,0,0,0,0,0,0,0,0,
0,0,0,0,0,0,0,0,0,0,0,0,0,0,0,0,0,0,0,0,0,0,0,0,0,9,0,0,0,0,0,0,0,0,0,0,0,0,0,0,0,0,0,0,0,0,0,0,0,0,0,0,
0,0,0,0,0,0,0,0,0,0,0,0,0,0,0,0,0,0,0,0,0,0,0,0,0,31,0,0,0,0,0,0,0,0,0,0,0,0,0,0,0,0,0,0,0,0,0,0,0,0,0,0,
0,0,0,0,0,0,0,0,0,0,0,0,0,0,0,0,0,0,0,0,0,0,0,0,0,31,0,0,0,0,0,0,0,0,0,0,0,0,0,0,0,0,0,0,0,0,0,0,0,0,0,0,
0,0,0,0,0,0,0,0,0,0,0,0,0,0,0,0,0,0,0,0,0,0,0,0,0,31,0,0,0,0,0,0,0,0,0,0,0,0,0,0,0,0,0,0,0,0,0,0,0,0,0,0,
0,0,0,0,0,0,0,0,0,0,0,0,0,0,0,0,0,0,0,0,0,0,0,0,0,31,0,0,0,0,0,0,0,0,0,0,0,0,0,0,0,0,0,0,0,0,0,0,0,0,0,0,
0,0,0,0,0,0,0,0,0,0,0,50,0,0,0,0,0,0,0,0,0,0,0,0,0,31,0,0,0,0,0,0,0,0,0,0,0,0,0,0,0,0,0,0,0,0,0,0,0,0,0,0,
0,0,0,0,0,0,0,0,0,0,0,0,0,0,0,0,0,0,0,0,0,0,0,0,0,31,0,0,0,0,0,0,0,0,0,0,0,0,0,0,0,0,0,0,0,0,0,0,0,0,0,0,
0,0,0,0,0,0,0,0,0,0,0,0,0,0,0,0,0,0,0,0,0,0,0,0,0,31,0,0,0,0,0,0,0,0,0,0,0,0,0,0,0,0,0,0,0,0,0,0,0,0,0,0,
0,0,0,0,0,0,0,0,0,0,0,0,0,0,0,0,0,0,0,0,0,0,0,0,0,31,0,0,0,0,0,0,0,0,0,0,0,0,0,0,0,0,0,0,0,0,0,0,0,0,0,0,
0,0,0,0,0,0,0,0,0,0,0,0,0,0,0,0,0,0,0,0,0,0,0,0,0,31,0,0,0,0,0,0,0,0,0,0,0,0,0,0,0,0,0,0,0,0,0,0,0,0,0,0,
0,0,0,0,0,0,0,0,0,0,0,0,0,0,0,0,0,0,0,0,0,0,0,0,0,31,0,0,0,0,0,0,0,0,0,0,0,0,0,0,0,0,0,0,0,0,0,0,0,0,0,0,
0,0,0,0,0,0,0,0,0,0,0,0,0,0,0,0,0,0,0,0,0,0,0,0,0,31,0,0,0,0,0,0,0,0,0,0,0,0,0,0,0,0,0,0,0,0,0,0,0,0,0,0,
0,0,0,0,0,0,0,0,0,0,0,0,0,0,0,0,0,0,0,0,0,0,0,0,0,31,0,0,0,0,0,0,0,0,0,0,0,0,0,0,0,0,0,0,0,0,0,0,0,0,0,0,
0,0,0,0,0,0,0,0,6,0,0,0,0,0,0,0,0,0,0,0,0,0,0,0,0,0,0,0,0,0,0,0,0,0,0,0,0,0,0,0,0,0,0,0,0,0,0,0,0,0,0,0,
0,0,0,0,0,0,0,0,0,0,0,0,0,0,0,0,0,0,0,0,0,0,0,0,0,0,0,0,0,0,0,0,0,0,0,0,0,0,0,0,0,0,0,0,0,0,0,0,0,0,0,0,
0,0,0,0,0,0,0,0,0,0,0,0,0,0,0,0,0,0,0,0,0,0,0,0,0,0,0,0,0,0,0,0,0,0,0,0,0,0,0,0,0,0,0,0,0,0,0,0,0,0,0,0
</data>
 </layer>
 <objectgroup id="3" name="collision_normal_tile">
  <object id="225" x="0" y="0" width="240" height="208"/>
  <object id="226" x="240" y="16" width="240" height="16"/>
  <object id="227" x="480" y="16" width="112" height="208"/>
  <object id="229" x="288" y="64" width="112" height="208"/>
  <object id="230" x="0" y="272" width="800" height="16"/>
  <object id="231" x="0" y="192" width="16" height="80"/>
  <object id="242" x="592" y="160" width="64" height="64"/>
  <object id="243" x="752" y="64" width="48" height="32"/>
  <object id="244" x="800" y="0" width="32" height="288"/>
  <object id="245" x="592" y="0" width="208" height="16"/>
 </objectgroup>
 <objectgroup id="4" name="decoration_object_layer"/>
 <objectgroup id="5" name="decoration_object_layer_foreground"/>
 <objectgroup id="6" name="object_layer">
  <object id="212" type="end" gid="249" x="752" y="65" width="53" height="52"/>
  <object id="213" type="start" gid="251" x="20" y="272" width="64" height="64"/>
  <object id="214" type="cherrie" gid="261" x="116" y="280" width="32" height="32"/>
  <object id="215" type="cherrie" gid="261" x="144" y="280" width="32" height="32"/>
  <object id="216" type="cherrie" gid="261" x="180" y="280" width="32" height="32"/>
  <object id="217" type="cherrie" gid="261" x="208" y="280" width="32" height="32"/>
  <object id="218" type="cherrie" gid="261" x="304" y="68" width="32" height="32"/>
  <object id="219" type="cherrie" gid="261" x="336" y="68" width="32" height="32"/>
  <object id="220" type="cherrie" gid="261" x="368" y="68" width="32" height="32"/>
  <object id="221" type="frog" gid="268" x="48" y="268" width="32" height="32"/>
  <object id="232" type="cherrie" gid="261" x="496" y="278" width="32" height="32"/>
  <object id="233" type="cherrie" gid="261" x="524" y="277" width="32" height="32"/>
  <object id="234" type="cherrie" gid="261" x="548" y="277" width="32" height="32"/>
  <object id="235" type="cherrie" gid="261" x="577" y="279" width="32" height="32"/>
  <object id="236" type="cherrie" gid="261" x="606" y="276" width="32" height="32"/>
  <object id="237" type="cherrie" gid="261" x="627" y="166" width="32" height="32"/>
  <object id="238" type="cherrie" gid="261" x="603" y="166" width="32" height="32"/>
  <object id="239" type="cherrie" gid="261" x="422" y="129" width="32" height="32"/>
  <object id="240" type="cherrie" gid="261" x="420" y="174" width="32" height="32"/>
  <object id="241" type="cherrie" gid="261" x="422" y="227" width="32" height="32"/>
  <object id="246" type="blue" gid="272" x="-64" y="0" width="64" height="64"/>
 </objectgroup>
 <objectgroup id="8" name="traps_layer"/>
 <objectgroup id="10" name="buttons"/>
 <objectgroup id="9" name="paths_layer"/>
</map>
