<?xml version="1.0" encoding="UTF-8"?>
<map version="1.10" tiledversion="1.12.2" orientation="orthogonal" renderorder="left-down" width="32" height="20" tilewidth="16" tileheight="16" infinite="0" nextlayerid="11" nextobjectid="231">
 <tileset firstgid="1" source="tilesets/Terrain.tsx"/>
 <tileset firstgid="243" source="tilesets/boxs.tsx"/>
 <tileset firstgid="249" source="tilesets/checkpoints.tsx"/>
 <tileset firstgid="252" source="tilesets/fruits.tsx"/>
 <tileset firstgid="268" source="tilesets/characters.tsx"/>
 <tileset firstgid="272" source="tilesets/background.tsx"/>
 <tileset firstgid="279" source="tilesets/traps.tsx"/>
 <layer id="7" name="background_tile" width="32" height="20">
  <data encoding="csv">
4,46,46,46,46,46,46,46,46,46,46,46,46,46,46,46,46,46,46,46,46,46,46,46,46,46,46,46,46,46,46,5,
25,0,0,0,0,0,0,0,0,0,0,0,0,0,0,0,0,0,0,0,0,0,0,0,0,0,0,0,13,14,15,23,
25,0,0,0,0,0,0,0,0,0,0,0,0,0,0,0,0,0,0,0,0,0,0,0,0,0,0,0,0,36,37,23,
25,0,0,0,0,0,0,0,0,0,0,0,0,0,0,0,0,0,0,0,0,0,0,0,0,0,0,0,0,58,59,23,
25,0,0,0,0,0,0,0,0,0,0,0,0,0,0,0,0,0,0,0,7,8,8,8,8,8,8,8,8,8,8,23,
25,0,0,0,0,0,0,0,0,0,0,0,0,0,0,0,0,0,0,0,29,30,30,30,30,30,30,30,30,30,30,23,
25,0,0,0,0,0,0,0,0,0,0,0,0,0,0,0,0,0,0,0,29,30,30,30,30,30,30,36,37,30,30,23,
25,0,0,0,0,0,0,0,0,0,0,0,0,0,0,0,0,0,0,0,29,30,30,30,30,30,30,58,59,30,30,23,
25,0,0,0,0,0,0,0,0,0,0,0,0,0,0,0,0,0,0,0,29,30,32,8,8,8,8,8,8,33,30,23,
25,0,0,0,0,0,0,0,0,0,0,0,0,0,0,0,0,0,0,0,29,30,30,30,30,30,30,30,30,30,30,23,
25,0,0,0,0,0,0,0,0,0,0,0,0,0,0,0,0,0,0,0,29,30,30,30,30,30,30,30,30,30,30,23,
25,0,0,0,0,0,0,0,0,0,0,0,0,0,0,0,0,0,0,0,29,30,30,30,30,30,30,30,30,30,30,23,
25,0,0,0,0,0,0,0,0,0,0,0,0,0,0,0,0,0,0,0,29,30,30,30,30,30,30,30,30,30,30,23,
25,0,0,0,0,0,0,0,0,0,0,0,0,0,0,0,0,0,0,0,29,30,30,30,30,30,30,30,30,30,30,23,
25,0,0,0,0,0,0,0,0,0,0,0,0,0,0,0,0,0,0,0,29,13,14,15,30,30,30,30,30,30,30,23,
25,0,0,0,0,0,0,0,0,0,0,0,0,0,0,0,0,0,0,0,29,30,36,37,30,30,30,30,30,30,30,23,
25,0,0,0,0,0,0,0,0,0,0,0,0,0,0,0,0,0,0,0,35,35,58,59,30,30,30,30,30,30,30,23,
25,8,8,8,8,8,8,8,8,8,8,8,8,8,8,8,8,8,8,8,8,8,8,8,33,30,30,30,30,30,30,23,
25,30,30,30,30,30,30,30,30,30,30,30,30,30,30,30,30,30,30,30,30,30,30,30,30,30,30,30,30,30,30,23,
26,2,2,2,2,2,2,2,2,2,2,2,2,2,2,2,2,2,2,2,2,2,2,2,2,2,2,2,2,2,2,27
</data>
 </layer>
 <layer id="1" name="normal_tile" width="32" height="20">
  <data encoding="csv">
0,0,0,0,0,0,0,0,0,0,0,0,0,0,0,0,0,0,0,0,0,0,0,0,0,0,0,0,0,0,0,0,
0,0,0,0,0,0,0,0,0,0,0,0,0,0,0,0,0,0,0,0,0,0,0,0,0,0,0,0,0,0,0,0,
0,0,0,0,0,0,0,0,0,0,0,0,0,0,0,0,0,0,0,0,0,0,0,0,0,0,0,0,0,0,0,0,
0,0,0,0,0,0,0,0,0,0,0,0,0,0,0,0,0,0,0,0,0,0,0,0,0,0,0,0,0,0,0,0,
0,0,0,0,0,0,0,0,0,0,0,0,0,0,0,0,0,0,0,0,0,0,0,0,0,0,0,0,0,0,0,0,
0,0,0,0,0,0,0,0,0,0,0,0,0,0,0,0,0,0,0,0,0,0,0,0,0,0,0,0,0,0,0,0,
0,0,0,0,0,0,0,0,0,0,0,0,0,0,0,0,0,0,0,0,0,0,0,0,0,0,0,0,0,0,0,0,
0,0,0,0,0,0,0,0,0,0,0,0,0,0,0,0,0,0,0,0,0,0,0,0,0,0,0,0,0,0,0,0,
0,0,0,0,0,0,0,0,0,0,0,0,0,0,0,0,0,0,0,0,0,0,0,0,0,0,0,0,0,0,0,0,
0,0,0,0,0,0,0,0,0,0,0,50,0,0,0,0,0,0,0,0,0,0,0,0,0,0,0,0,0,0,0,0,
0,0,0,0,0,0,0,0,0,0,0,0,0,0,0,0,0,0,0,0,0,0,0,0,0,0,0,0,0,0,0,0,
0,0,0,0,0,0,0,0,0,0,0,0,0,0,0,0,0,0,0,0,0,0,0,0,0,0,0,0,0,0,0,0,
0,0,0,0,0,0,0,0,0,0,0,0,0,0,0,0,0,0,0,0,0,0,0,0,0,0,0,0,0,0,0,0,
0,0,0,0,0,0,0,0,0,0,0,0,0,0,0,0,0,0,0,0,0,0,0,0,0,0,0,0,0,0,0,0,
0,0,0,0,0,0,0,0,0,0,0,0,0,0,0,0,0,0,0,0,0,0,0,0,0,0,0,0,0,0,0,0,
0,0,0,0,0,0,0,0,0,0,0,0,0,0,0,0,0,0,0,0,0,0,0,0,0,0,0,0,0,0,0,0,
0,0,0,0,0,0,0,0,0,0,0,0,0,0,0,0,0,0,0,0,0,0,0,0,0,0,0,0,0,0,0,0,
0,0,0,0,0,0,0,0,6,0,0,0,0,0,0,0,0,0,0,0,0,0,0,0,0,0,0,0,0,0,0,0,
0,0,0,0,0,0,0,0,0,0,0,0,0,0,0,0,0,0,0,0,0,0,0,0,0,0,0,0,0,0,0,0,
0,0,0,0,0,0,0,0,0,0,0,0,0,0,0,0,0,0,0,0,0,0,0,0,0,0,0,0,0,0,0,0
</data>
 </layer>
 <objectgroup id="3" name="collision_normal_tile">
  <object id="225" x="0" y="0" width="16" height="288"/>
  <object id="226" x="16" y="272" width="320" height="16"/>
  <object id="227" x="320" y="64" width="16" height="208"/>
  <object id="228" x="336" y="64" width="160" height="16"/>
  <object id="229" x="496" y="0" width="16" height="80"/>
  <object id="230" x="16" y="0" width="480" height="16"/>
 </objectgroup>
 <objectgroup id="4" name="decoration_object_layer"/>
 <objectgroup id="5" name="decoration_object_layer_foreground"/>
 <objectgroup id="6" name="object_layer">
  <object id="212" type="frog" gid="268" x="32" y="268" width="32" height="32"/>
  <object id="213" type="start" gid="251" x="16" y="272" width="64" height="64"/>
  <object id="214" type="end" gid="249" x="392" y="64" width="64" height="64"/>
  <object id="215" type="cherrie" gid="261" x="316" y="72" width="32" height="32"/>
  <object id="216" type="cherrie" gid="261" x="336" y="72" width="32" height="32"/>
  <object id="217" type="cherrie" gid="261" x="356" y="72" width="32" height="32"/>
  <object id="218" type="cherrie" gid="261" x="220" y="280" width="32" height="32"/>
  <object id="219" type="cherrie" gid="261" x="248" y="280" width="32" height="32"/>
  <object id="220" type="cherrie" gid="261" x="276" y="280" width="32" height="32"/>
  <object id="221" type="cherrie" gid="261" x="296" y="144" width="32" height="32"/>
  <object id="222" type="cherrie" gid="261" x="296" y="168" width="32" height="32"/>
  <object id="223" type="cherrie" gid="261" x="296" y="188" width="32" height="32"/>
  <object id="224" type="blue" gid="272" x="-64" y="4" width="64" height="64"/>
 </objectgroup>
 <objectgroup id="8" name="traps_layer"/>
 <objectgroup id="10" name="buttons"/>
 <objectgroup id="9" name="paths_layer"/>
</map>
