<?xml version="1.0" encoding="UTF-8"?>
<map version="1.10" tiledversion="1.12.2" orientation="orthogonal" renderorder="left-down" width="62" height="20" tilewidth="16" tileheight="16" infinite="0" nextlayerid="8" nextobjectid="155">
 <tileset firstgid="1" source="tilesets/Terrain.tsx"/>
 <tileset firstgid="243" source="tilesets/boxs.tsx"/>
 <tileset firstgid="249" source="tilesets/checkpoints.tsx"/>
 <tileset firstgid="252" source="tilesets/fruits.tsx"/>
 <layer id="7" name="background_tile" width="62" height="20">
  <data encoding="csv">
0,0,0,0,0,0,0,0,0,0,0,0,0,0,0,0,0,0,0,0,0,0,0,0,0,0,0,0,0,0,0,0,0,0,0,0,0,0,0,0,0,0,0,0,0,0,0,0,0,0,0,0,0,0,0,0,0,0,0,0,0,0,
0,0,0,0,0,0,0,0,0,0,0,0,0,0,0,0,0,0,0,0,0,0,0,0,0,0,0,0,0,0,0,0,0,0,0,0,0,0,0,0,0,0,0,0,0,0,0,0,0,0,0,0,0,0,0,0,0,0,0,0,0,0,
0,0,0,0,0,0,0,0,0,0,0,0,0,0,0,0,0,0,0,0,0,0,0,0,0,0,0,0,0,0,0,0,0,0,0,0,0,0,0,0,0,0,0,0,0,0,0,0,0,0,0,0,0,0,0,0,0,0,0,0,0,0,
0,0,0,0,0,0,0,0,0,0,0,0,0,0,0,0,0,0,0,0,0,0,0,0,0,0,0,0,0,0,0,0,0,0,0,0,0,0,0,0,0,0,0,0,0,0,0,0,0,0,0,0,0,0,0,0,0,0,0,0,0,0,
0,0,0,0,0,0,0,0,0,0,0,0,0,0,0,0,0,0,0,0,0,0,0,0,0,0,0,0,0,0,0,0,0,0,0,0,0,0,0,0,0,0,0,0,0,0,0,0,0,0,0,0,0,0,0,0,0,0,0,0,0,0,
0,0,0,0,0,0,0,0,0,0,0,0,0,0,0,0,0,0,0,0,0,0,0,0,0,0,0,0,0,0,0,0,0,0,0,0,0,0,0,0,0,0,0,0,0,0,0,0,0,0,0,0,0,0,0,0,0,0,0,0,0,0,
0,0,0,0,0,0,0,0,0,0,0,0,0,0,0,0,0,0,0,0,0,0,0,0,0,0,0,0,0,0,0,0,0,0,0,0,0,0,0,0,129,129,129,129,129,129,129,0,130,0,0,0,0,0,0,0,0,0,0,0,0,0,
0,0,0,0,0,0,0,0,0,0,0,0,0,0,0,0,0,0,0,0,0,0,0,0,0,0,0,0,0,0,0,0,0,0,0,0,0,0,0,0,150,110,129,129,129,129,129,109,152,0,0,0,0,0,0,0,0,0,0,0,0,0,
0,0,0,0,0,0,0,0,0,0,0,0,0,0,0,0,0,0,0,0,0,0,0,0,0,0,0,0,0,0,0,0,0,0,0,0,0,0,0,0,0,150,110,129,129,129,109,152,0,0,0,0,0,0,0,0,0,0,0,0,0,0,
0,0,0,0,0,0,0,0,0,0,0,0,150,0,0,0,0,0,0,0,0,0,0,0,0,0,0,0,0,0,0,0,0,0,0,0,0,0,0,0,0,0,150,110,129,109,152,0,0,0,0,0,0,0,0,0,0,0,0,0,0,0,
0,0,0,0,0,0,0,0,0,0,0,0,0,150,110,0,0,0,0,0,0,0,0,0,0,0,0,0,0,0,0,0,0,0,0,0,0,0,0,0,0,0,0,128,129,130,0,0,0,0,0,0,0,0,0,0,0,0,0,0,0,0,
0,0,0,0,0,0,0,0,0,0,0,0,0,0,106,129,130,0,0,0,0,0,0,0,0,0,0,0,0,0,0,0,0,0,0,0,0,0,0,0,0,0,0,128,129,130,0,0,0,0,0,0,0,0,0,0,0,0,0,0,0,0,
0,0,0,0,0,0,0,0,0,0,0,0,0,0,106,129,130,0,0,0,0,0,0,0,0,0,0,0,0,0,0,0,0,0,0,0,0,0,0,0,0,0,0,128,129,130,0,0,0,0,0,0,0,0,0,0,0,0,0,0,0,0,
0,0,0,0,0,0,0,0,0,0,0,0,0,0,106,129,130,0,0,0,0,0,0,0,0,0,0,0,0,0,0,0,0,0,0,0,0,0,0,0,0,0,0,128,129,130,0,0,0,0,0,0,0,0,0,0,0,0,0,0,0,0,
0,0,0,0,0,0,0,0,0,0,0,0,0,0,0,0,130,0,0,0,0,0,0,0,0,0,0,0,0,0,0,0,0,0,0,0,0,0,0,0,0,0,0,128,129,130,0,0,0,0,0,0,0,0,0,0,0,0,0,0,0,0,
0,0,0,0,0,0,0,0,0,0,0,0,0,0,0,0,130,0,0,0,0,0,0,0,0,0,0,0,0,0,0,0,0,0,0,0,0,0,0,0,0,0,0,128,129,130,0,0,0,0,0,0,0,0,0,0,0,0,0,0,0,0,
0,0,0,0,0,0,0,0,0,0,0,0,0,0,0,0,0,0,0,0,0,0,0,0,0,0,0,0,0,0,0,0,0,0,0,0,0,0,0,0,0,0,0,128,129,130,0,0,0,0,0,0,0,0,0,0,0,0,0,0,0,0,
0,0,0,0,0,0,0,0,0,0,0,0,0,0,0,0,0,0,0,0,0,0,0,0,0,0,0,0,0,0,0,0,0,0,0,0,0,0,0,0,0,0,0,0,0,0,0,0,130,0,0,0,0,0,0,0,0,0,0,0,0,0,
0,0,0,0,0,0,0,0,0,0,0,0,0,0,0,0,0,0,0,0,0,0,0,0,0,0,0,0,0,0,0,0,0,0,0,0,0,0,0,0,0,0,0,0,0,0,0,0,0,0,0,0,0,0,0,0,0,0,0,0,0,0,
0,0,0,0,0,0,0,0,0,0,0,0,0,0,0,0,0,0,0,0,0,0,0,0,0,0,0,0,0,0,0,0,0,0,0,0,0,0,0,0,0,0,0,0,0,0,0,0,0,0,0,0,0,0,0,0,0,0,0,0,0,0
</data>
 </layer>
 <layer id="1" name="normal_tile" width="62" height="20">
  <data encoding="csv">
31,52,52,52,52,52,52,52,52,52,52,52,52,52,52,52,52,52,52,52,52,52,52,52,52,52,52,52,52,52,52,52,52,52,52,52,52,52,52,52,52,52,52,52,52,29,10,52,52,52,52,52,52,52,52,52,52,52,52,52,52,11,
31,0,0,0,0,0,0,0,0,0,0,0,0,0,0,0,0,0,0,0,0,0,0,0,0,0,0,0,0,0,0,0,0,0,0,0,0,0,0,0,0,0,0,0,0,29,31,0,0,0,0,0,0,0,0,0,0,0,0,0,0,29,
31,0,0,0,0,0,0,0,0,0,0,0,0,0,0,0,0,0,0,0,0,0,0,0,0,0,0,0,0,0,0,0,0,0,0,0,0,0,0,0,0,0,0,0,0,29,31,0,0,0,0,0,0,0,0,0,0,0,0,0,0,29,
31,0,0,0,0,0,0,0,0,0,0,0,0,0,0,0,0,0,0,0,0,0,0,0,0,0,0,0,0,0,0,0,0,0,0,0,0,0,0,0,0,0,0,0,0,29,31,0,0,0,0,0,0,0,13,14,14,14,14,14,14,15,
13,14,15,0,0,0,0,0,0,0,0,0,0,0,0,0,0,0,0,0,0,0,0,0,0,0,0,0,0,0,0,0,0,0,0,0,0,0,0,0,0,0,0,0,0,29,32,8,9,0,0,0,0,0,0,0,0,0,0,0,36,37,
31,16,0,0,0,0,0,0,0,0,0,0,0,0,0,0,0,0,0,0,0,0,0,0,0,0,0,0,0,0,0,0,0,0,0,13,14,14,15,7,8,8,8,8,8,33,30,13,14,14,14,15,0,0,0,0,0,0,0,0,58,59,
31,38,0,0,0,0,13,14,14,14,14,15,0,0,0,0,0,0,0,0,0,0,0,0,0,0,0,0,0,0,0,0,0,0,0,0,0,51,52,52,52,52,52,52,52,52,52,52,53,0,0,0,0,0,0,0,0,0,0,0,0,29,
31,60,0,0,0,0,0,0,0,0,35,8,8,8,9,35,0,0,0,0,0,0,0,0,0,0,0,0,0,0,0,0,0,0,0,0,0,0,0,0,0,0,0,0,0,0,0,0,0,0,0,0,0,0,0,0,0,0,0,0,0,29,
8,9,0,0,0,0,0,0,0,0,50,51,52,11,32,8,9,0,0,0,0,0,0,0,0,0,0,0,7,8,8,9,0,0,0,0,0,0,0,0,0,0,0,0,0,0,0,0,0,0,0,0,0,13,14,14,15,0,0,0,0,29,
30,31,0,0,0,0,0,0,0,0,0,0,0,51,52,11,32,8,9,40,41,42,0,0,0,0,0,0,29,30,30,31,0,0,0,0,0,0,0,0,0,0,0,0,0,0,0,0,0,0,0,0,0,0,0,29,31,0,0,0,0,29,
30,31,0,0,0,0,0,0,0,0,0,0,0,0,0,51,52,52,53,0,0,0,0,0,0,0,0,7,8,8,32,8,9,0,0,0,0,0,0,0,0,0,0,0,0,0,0,0,0,0,0,0,0,36,37,29,31,0,0,0,0,29,
30,31,0,0,0,0,0,0,0,0,0,0,0,0,128,0,0,0,0,0,0,0,0,0,0,0,0,29,30,30,30,30,31,0,0,0,0,0,0,0,0,0,0,0,0,0,0,0,0,0,0,0,0,58,59,29,31,0,0,0,0,29,
30,31,0,0,0,0,0,0,0,0,0,0,0,0,128,0,0,0,0,0,0,0,0,0,0,0,0,29,30,30,32,8,8,9,0,0,0,0,0,0,0,0,0,0,0,0,40,41,42,7,8,8,8,8,8,33,31,0,0,7,8,29,
30,31,0,0,0,0,0,0,0,0,0,0,0,0,128,0,0,0,0,0,0,0,0,0,7,8,8,9,30,30,30,30,30,31,0,0,0,0,0,0,0,0,0,0,0,0,0,0,0,29,30,52,52,52,52,52,53,0,0,51,52,29,
30,31,0,0,0,0,0,0,0,0,7,8,8,8,8,9,0,0,0,0,0,0,0,0,29,30,30,31,30,30,30,30,30,7,8,9,0,0,7,9,40,41,42,0,0,0,0,0,0,29,31,0,0,0,0,0,0,0,0,0,35,29,
30,31,0,0,0,0,0,0,6,7,8,8,8,33,30,31,0,0,0,0,0,0,0,0,29,30,30,31,13,14,15,16,30,29,30,31,0,0,29,31,0,0,0,0,0,0,0,0,0,29,31,0,0,0,0,0,0,0,0,13,15,29,
30,31,0,0,0,0,0,6,7,8,33,30,30,30,30,31,36,37,0,0,0,0,7,8,8,9,30,36,37,36,37,38,30,29,32,8,8,8,33,31,0,0,0,0,0,0,0,0,0,29,31,0,0,0,0,0,0,0,0,36,37,29,
30,31,0,0,0,0,6,7,8,33,30,30,30,30,30,31,58,59,35,0,0,0,29,30,30,31,30,58,59,58,59,60,30,29,30,30,30,30,30,7,8,8,8,8,8,8,8,8,8,8,9,0,0,0,0,0,0,0,0,58,59,29,
8,8,8,8,8,8,8,8,8,8,8,8,8,8,8,8,8,8,8,8,8,8,8,8,8,8,8,8,8,8,8,8,8,8,8,8,8,8,8,29,30,30,30,30,30,30,30,30,30,30,31,8,8,8,8,8,8,8,8,8,8,8,
30,30,30,30,30,30,30,30,30,30,30,30,30,30,30,30,30,30,30,30,30,30,30,30,30,30,30,30,30,30,30,30,30,30,30,30,30,30,30,29,30,30,30,30,30,30,30,30,30,30,31,30,30,30,30,30,30,30,30,30,30,30
</data>
 </layer>
 <objectgroup id="3" name="collision_normal_tile" visible="0">
  <object id="7" name="block" x="0" y="64" width="48" height="16"/>
  <object id="8" name="block" x="16" y="80" width="16" height="208"/>
  <object id="9" name="block" x="32" y="288" width="80" height="16"/>
  <object id="10" name="block" x="112" y="272" width="16" height="16"/>
  <object id="12" name="block" x="128" y="256" width="16" height="16"/>
  <object id="13" name="block" x="144" y="240" width="16" height="16"/>
  <object id="17" name="block" x="256" y="256" width="32" height="16"/>
  <object id="18" name="block" x="288" y="272" width="16" height="16"/>
  <object id="19" name="block" x="304" y="288" width="48" height="16"/>
  <object id="21" name="block" x="352" y="256" width="32" height="32"/>
  <object id="22" name="block" x="384" y="208" width="48" height="48"/>
  <object id="23" name="block" x="432" y="160" width="16" height="48"/>
  <object id="24" name="block" x="448" y="128" width="64" height="32"/>
  <object id="25" name="block" x="96" y="96" width="96" height="16"/>
  <object id="26" name="block" x="160" y="112" width="96" height="16"/>
  <object id="27" name="block" x="176" y="128" width="96" height="16"/>
  <object id="29" name="block" x="208" y="144" width="32" height="16"/>
  <object id="30" name="block" x="240" y="144" width="64" height="32"/>
  <object id="33" name="wood" x="304.875" y="144" width="46.875" height="5"/>
  <object id="34" name="block" x="160" y="224" width="96" height="32"/>
  <object id="74" name="block" x="560" y="80" width="32" height="16"/>
  <object id="75" name="block" x="592" y="80" width="128" height="32"/>
  <object id="78" name="block" x="720" y="16" width="32" height="96"/>
  <object id="79" name="block" x="752" y="64" width="32" height="48"/>
  <object id="81" name="block" x="784" y="80" width="48" height="16"/>
  <object id="82" name="block" x="512" y="160" width="16" height="48"/>
  <object id="83" name="block" x="528" y="192" width="16" height="48"/>
  <object id="85" name="block" x="544" y="224" width="32" height="32"/>
  <object id="86" name="block" x="608" y="224" width="32" height="48"/>
  <object id="87" name="block" x="576" y="256" width="32" height="16"/>
  <object id="88" name="block" x="640" y="272" width="176" height="16"/>
  <object id="89" name="block" x="784" y="192" width="32" height="80"/>
  <object id="92" name="block" x="816" y="288" width="128" height="16"/>
  <object id="93" name="block" x="944" y="240" width="32" height="48"/>
  <object id="94" name="block" x="960" y="224" width="16" height="16"/>
  <object id="95" name="block" x="944" y="192" width="32" height="32"/>
  <object id="96" name="block" x="976" y="96" width="16" height="96"/>
  <object id="97" name="block" x="880" y="144" width="32" height="80"/>
  <object id="100" name="block" x="816" y="192" width="64" height="32"/>
  <object id="101" name="block" x="848" y="160" width="32" height="32"/>
  <object id="105" name="block" x="848" y="128" width="64" height="16"/>
  <object id="106" name="block" x="960" y="64" width="32" height="32"/>
  <object id="108" name="block" x="864" y="48" width="128" height="16"/>
  <object id="109" name="block" x="976" y="16" width="16" height="32"/>
  <object id="111" name="block" x="0" y="0" width="16" height="64"/>
  <object id="113" name="block" x="16" y="0" width="976" height="16"/>
  <object id="114" name="wood" x="640" y="224" width="48" height="4.90909"/>
  <object id="115" name="wood" x="736" y="192" width="48" height="5"/>
 </objectgroup>
 <objectgroup id="4" name="decoration_object_layer"/>
 <objectgroup id="5" name="decoration_object_layer_foreground"/>
 <objectgroup id="6" name="object_layer">
  <object id="69" name="start" type="start" gid="251" x="39" y="288" width="64" height="64"/>
  <object id="70" name="flag" type="flag" gid="250" x="702" y="273" width="64" height="64"/>
  <object id="71" name="flag" type="flag" gid="250" x="433" y="130" width="64" height="64"/>
  <object id="72" name="box1" type="box1" gid="246" x="329" y="290" width="28" height="24"/>
  <object id="73" name="box3" type="box3" gid="248" x="390" y="259" width="28" height="24"/>
  <object id="116" name="end" type="end" gid="249" x="821.333" y="288.667" width="64" height="64"/>
  <object id="117" name="Banana" type="banana" gid="260" x="152" y="232" width="32" height="32"/>
  <object id="118" name="Banana" type="banana" gid="260" x="168" y="232" width="32" height="32"/>
  <object id="119" name="Banana" type="banana" gid="260" x="184" y="232" width="32" height="32"/>
  <object id="120" name="Banana" type="banana" gid="260" x="168" y="216" width="32" height="32"/>
  <object id="121" name="Banana" type="banana" gid="260" x="120" y="104" width="32" height="32"/>
  <object id="122" name="Banana" type="banana" gid="260" x="152" y="104" width="32" height="32"/>
  <object id="123" name="Banana" type="banana" gid="260" x="136" y="104" width="32" height="32"/>
  <object id="124" name="Banana" type="banana" gid="260" x="136" y="88" width="32" height="32"/>
  <object id="125" name="Banana" type="banana" gid="260" x="312" y="152" width="32" height="32"/>
  <object id="126" name="Banana" type="banana" gid="260" x="8" y="72" width="32" height="32"/>
  <object id="127" name="Banana" type="banana" gid="260" x="552" y="88" width="32" height="32"/>
  <object id="128" name="Banana" type="banana" gid="260" x="568" y="72" width="32" height="32"/>
  <object id="129" name="Banana" type="banana" gid="260" x="584" y="88" width="32" height="32"/>
  <object id="130" name="Banana" type="banana" gid="260" x="568" y="88" width="32" height="32"/>
  <object id="131" name="Banana" type="banana" gid="260" x="600" y="88" width="32" height="32"/>
  <object id="132" name="Banana" type="banana" gid="260" x="616" y="88" width="32" height="32"/>
  <object id="133" name="Banana" type="banana" gid="260" x="632" y="88" width="32" height="32"/>
  <object id="134" name="Banana" type="banana" gid="260" x="648" y="88" width="32" height="32"/>
  <object id="135" name="Banana" type="banana" gid="260" x="664" y="88" width="32" height="32"/>
  <object id="136" name="Banana" type="banana" gid="260" x="584" y="72" width="32" height="32"/>
  <object id="137" name="Banana" type="banana" gid="260" x="616" y="72" width="32" height="32"/>
  <object id="138" name="Banana" type="banana" gid="260" x="600" y="72" width="32" height="32"/>
  <object id="139" name="Banana" type="banana" gid="260" x="632" y="72" width="32" height="32"/>
  <object id="140" name="Banana" type="banana" gid="260" x="648" y="72" width="32" height="32"/>
  <object id="141" name="Banana" type="banana" gid="260" x="664" y="72" width="32" height="32"/>
  <object id="142" name="Banana" type="banana" gid="260" x="680" y="72" width="32" height="32"/>
  <object id="143" name="Banana" type="banana" gid="260" x="696" y="72" width="32" height="32"/>
  <object id="144" name="Banana" type="banana" gid="260" x="680" y="88" width="32" height="32"/>
  <object id="145" name="Banana" type="banana" gid="260" x="696" y="88" width="32" height="32"/>
  <object id="146" name="Banana" type="banana" gid="260" x="776" y="88" width="32" height="32"/>
  <object id="147" name="Banana" type="banana" gid="260" x="792" y="72" width="32" height="32"/>
  <object id="150" name="Banana" type="banana" gid="260" x="808" y="88" width="32" height="32"/>
  <object id="151" name="Banana" type="banana" gid="260" x="904" y="296" width="32" height="32"/>
  <object id="154" name="Banana" type="banana" gid="260" x="888" y="56" width="32" height="32"/>
 </objectgroup>
</map>
